!!!COM: Music21
!!!OTL: Foliada de Bergantiños
!!!OMV: pezas_foliadas_foliada-de-bergantinos_foliada-de-bergantinos-partitura.musicxml
**kern
*part1
*staff1
*I"Bagpipes
*I'Bag
*clefG^2
*k[]
*M3/4
=1
!LO:TX:a:t=Presto
*MM200
!LO:TX:a:t=[quarter]=200
4r
4.gg
8gg
=||
4aa
8ggL
8ffJ
4ee
=
8eeL
8ffJ
4gg
4gg
=
4.ff
8ee
[4dd
=
4dd]
4.ff
8gg
=
4aa
8aaL
8ggJ
4ff
=
8ffL
8ggJ
4aa
4aa
=
4.gg
8ff
[4ee
!!linebreak:original
=
4ee]
4.gg
8gg
=||
4aa
8ggL
8ffJ
4ee
=
8eeL
8ffJ
4gg
4gg
=
4.ff
8ee
[4dd
=
4dd]
4.ff
8gg
=
4aa
8aaL
8ggJ
4ff
=
8ffL
8ggJ
4aa
4aa
=
4.gg
8ff
[4ee
=
2.ee_
!!linebreak:original
=||
4ee]
4r
4gg
=
4aa
8ggL
8ffJ
[4ee
=
4ee]
2aa
=
4.gg
16aaLL
16ggJJ
[4ff
=
4ff]
4ff
4ff
=
2gg
4bb
=
2aa
4gg
!!linebreak:original
=
4.ff
16ggLL
16ffJJ
[4ee
=
4ee]
4r
4gg
=||
4aa
8ggL
8ffJ
[4ee
=
4ee]
2aa
=
4.gg
16aaLL
16ggJJ
[4ff
=
4ff]
4ff
4ff
=
2gg
4bb
=
2aa
4gg
=
4.ff
16ggLL
16ffJJ
[4ee
=
4ee]
4r
4gg
!!linebreak:original
=||
4aa
8ggL
8ffJ
[4ee
=
4ee]
2aa
=
4.gg
16aaLL
16ggJJ
[4ff
=
4ff]
4ff
4ff
=
2gg
4bb
=
2aa
4gg
!!pagebreak:original
=
4.ff
16ggLL
16ffJJ
[4ee
=
2.ee_
=||
4ee]
4.gg
8gg
=||
4aa
8ggL
8ffJ
4ee
=
8eeL
8ffJ
4gg
4gg
=
4.ff
8ee
[4dd
=
4dd]
4.ff
8gg
=
4aa
8aaL
8ggJ
4ff
=
8ffL
8ggJ
4aa
4aa
!!linebreak:original
=
4.gg
8ff
[4ee
=
4ee]
4.gg
8gg
=||
4aa
8ggL
8ffJ
4ee
=
8eeL
8ffJ
4gg
4gg
=
4.ff
8ee
[4dd
=
4dd]
4.ff
8gg
=
4aa
8aaL
8ggJ
4ff
=
8ffL
8ggJ
4aa
4aa
!!linebreak:original
=
4.gg
8ff
[4ee
=
2.ee_
=
4ee]
4.gg
8gg
=||
4.gg
8ff
[4ee
=
2.ee_
=
4ee]
2r
==
*-
!!!system-decoration: s1,s2
